dist/images/icons/icon-category-asia.svg

<svg width="44" height="45" viewBox="0 0 44 45" fill="none" xmlns="http://www.w3.org/2000/svg">
<g clip-path="url(#clip0_669_808)">
<g clip-path="url(#clip1_669_808)">
<path d="M15.1315 13.5966H17.2563C17.8077 13.5966 18.2562 14.0451 18.2562 14.5965V16.0613C18.2562 16.4173 18.5448 16.7059 18.9007 16.7059C19.2567 16.7059 19.5453 16.4173 19.5453 16.0613V14.5965C19.5453 13.3343 18.5184 12.3075 17.2563 12.3075H15.1315C14.5894 12.3075 14.1484 11.8665 14.1484 11.3244C14.1484 10.7823 14.5894 10.3413 15.1315 10.3413H19.843C21.0959 10.3413 22.1151 9.32204 22.1151 8.06916C22.1151 6.81628 21.0958 5.79706 19.843 5.79706H16.0738C15.7179 5.79706 15.4293 6.08564 15.4293 6.44159C15.4293 6.79754 15.7179 7.08612 16.0738 7.08612H19.843C20.3851 7.08612 20.8261 7.52715 20.8261 8.06916C20.8261 8.61125 20.385 9.05228 19.843 9.05228H15.1315C13.8786 9.05228 12.8593 10.0716 12.8593 11.3244C12.8593 12.5773 13.8786 13.5966 15.1315 13.5966V13.5966Z" fill="black"/>
<path d="M7.38855 17.9223H9.49711C10.0414 17.9223 10.4844 18.3652 10.4844 18.9096V20.3634C10.4844 20.7193 10.7729 21.0079 11.1289 21.0079C11.4848 21.0079 11.7734 20.7193 11.7734 20.3634V18.9096C11.7734 17.6544 10.7522 16.6332 9.49711 16.6332H7.38855C6.85333 16.6332 6.41797 16.1978 6.41797 15.6627C6.41797 15.1275 6.85341 14.6921 7.38855 14.6921H9.85384C10.2098 14.6921 10.4984 14.4035 10.4984 14.0475C10.4984 13.6916 10.2098 13.403 9.85384 13.403H7.38855C6.14254 13.403 5.12891 14.4166 5.12891 15.6627C5.12891 16.9087 6.14254 17.9223 7.38855 17.9223Z" fill="black"/>
<path d="M25.6523 26.8423C26.0083 26.8423 26.2969 26.5537 26.2969 26.1978C26.2969 25.8418 26.0083 25.5532 25.6523 25.5532C25.2964 25.5532 25.0078 25.8418 25.0078 26.1978C25.0078 26.5537 25.2964 26.8423 25.6523 26.8423Z" fill="black"/>
<path d="M28.832 28.3032C29.188 28.3032 29.4766 28.0147 29.4766 27.6587C29.4766 27.3027 29.188 27.0142 28.832 27.0142C28.4761 27.0142 28.1875 27.3027 28.1875 27.6587C28.1875 28.0147 28.4761 28.3032 28.832 28.3032Z" fill="black"/>
<path d="M30.7227 30.5376C31.0786 30.5376 31.3672 30.249 31.3672 29.8931C31.3672 29.5371 31.0786 29.2485 30.7227 29.2485C30.3667 29.2485 30.0781 29.5371 30.0781 29.8931C30.0781 30.249 30.3667 30.5376 30.7227 30.5376Z" fill="black"/>
<path d="M28.0586 25.2954C28.4146 25.2954 28.7031 25.0068 28.7031 24.6509C28.7031 24.2949 28.4146 24.0063 28.0586 24.0063C27.7026 24.0063 27.4141 24.2949 27.4141 24.6509C27.4141 25.0068 27.7026 25.2954 28.0586 25.2954Z" fill="black"/>
<path d="M25.9102 30.9673C26.2661 30.9673 26.5547 30.6787 26.5547 30.3228C26.5547 29.9668 26.2661 29.6782 25.9102 29.6782C25.5542 29.6782 25.2656 29.9668 25.2656 30.3228C25.2656 30.6787 25.5542 30.9673 25.9102 30.9673Z" fill="black"/>
<path d="M42.9114 22.8408H41.083L41.9867 20.9731C43.1331 20.7449 44 19.7312 44 18.5187C44 17.2751 43.0882 16.241 41.8981 16.0485C40.5827 13.6793 38.0131 11.9 34.8968 11.1897V11.1406C34.8968 10.7846 34.6083 10.496 34.2523 10.496C33.9573 10.496 33.7091 10.6945 33.6326 10.965C33.2401 10.9144 32.8407 10.8815 32.4363 10.8648C32.333 10.647 32.1116 10.496 31.8545 10.496C31.5973 10.496 31.376 10.647 31.2726 10.8648C30.8681 10.8815 30.4687 10.9144 30.0762 10.9651C29.9997 10.6945 29.7516 10.496 29.4565 10.496C29.1005 10.496 28.812 10.7846 28.812 11.1406V11.1897C25.6958 11.9 23.1261 13.6794 21.8108 16.0485C20.6207 16.241 19.709 17.2751 19.709 18.5187C19.709 18.5913 19.7123 18.6632 19.7184 18.7342C16.7427 19.0109 14.0692 20.2541 12.0633 22.1194H8.01359C7.73755 22.1194 7.4904 22.2433 7.32316 22.4378H5.43039C5.12033 21.6544 4.35067 21.1008 3.47342 21.1008C2.31344 21.1008 1.36976 22.0445 1.36976 23.2045C1.36976 23.3036 1.37758 23.4015 1.39124 23.4981C0.580851 23.7907 0 24.5674 0 25.4773C0 25.8813 0.114727 26.2696 0.325445 26.602C0.114727 26.9345 0 27.3229 0 27.7268C0 28.8868 0.94368 29.8305 2.10366 29.8305C2.98091 29.8305 3.75057 29.2769 4.06063 28.4935H5.76537C5.84358 28.7808 6.0592 29.0178 6.35087 29.1169L8.37177 29.8031C8.35974 30.0113 8.35321 30.2209 8.35321 30.432C8.35321 30.6308 8.35888 30.8287 8.36945 31.0259C8.05346 31.1021 7.75852 31.2329 7.49607 31.409C7.06398 31.1192 6.54491 30.9496 5.98666 30.9496C4.48791 30.9496 3.26863 32.1689 3.26863 33.6676C3.26863 33.6906 3.27035 33.7132 3.27095 33.7359H2.51685C2.09129 33.7359 1.71411 33.975 1.53244 34.3598C1.35077 34.7446 1.40585 35.1877 1.6763 35.5162L3.6098 37.8658C3.81743 38.1179 4.12371 38.2625 4.45036 38.2625H31.7103C32.0663 38.2625 32.3548 37.974 32.3548 37.618C32.3548 37.262 32.0663 36.9735 31.7103 36.9735H4.54498L2.94147 35.025H42.4853L40.8818 36.9735H34.7181C34.362 36.9735 34.0735 37.262 34.0735 37.618C34.0735 37.974 34.362 38.2625 34.7181 38.2625H40.9764C41.3031 38.2625 41.6095 38.1178 41.8169 37.8657L43.7504 35.5163C44.0207 35.1877 44.0759 34.7446 43.8942 34.3598C43.7126 33.9749 43.3354 33.7359 42.9099 33.7359H42.2716C42.905 32.6399 43.143 31.3409 42.9119 30.0644C42.8639 29.8 42.657 29.593 42.3925 29.5451C40.6466 29.229 38.857 29.7878 37.6048 31.0399C37.5283 31.1164 37.4554 31.1956 37.3842 31.2761C37.0148 31.076 36.594 30.96 36.1474 30.9512V29.7248H36.835C37.925 29.7248 38.8117 28.8381 38.8117 27.7482V26.8829H42.9114C43.5116 26.8829 44 26.3946 44 25.7944V23.9294C44 23.3291 43.5116 22.8408 42.9114 22.8408V22.8408ZM6.29054 33.736H4.56002C4.5589 33.7133 4.5577 33.6907 4.5577 33.6677C4.5577 32.8797 5.1987 32.2387 5.98666 32.2387C6.21079 32.2387 6.42254 32.2912 6.61126 32.3838C6.40535 32.7664 6.28813 33.2036 6.28813 33.6677C6.28822 33.6907 6.28994 33.7132 6.29054 33.736ZM38.5163 31.9514C39.3595 31.1084 40.5223 30.6781 41.7005 30.7566C41.7727 31.8419 41.412 32.9145 40.6953 33.736H39.6325L40.5131 32.8554C40.7648 32.6037 40.7648 32.1956 40.5131 31.944C40.2613 31.6923 39.8533 31.6923 39.6015 31.944L38.6882 32.8573C38.6075 32.5997 38.4893 32.3584 38.3402 32.1399C38.3969 32.0755 38.4553 32.0125 38.5163 31.9514ZM25.5032 13.972C26.4787 13.3185 27.6054 12.8283 28.812 12.5199V13.1832C28.812 13.5392 29.1005 13.8277 29.4565 13.8277C29.8126 13.8277 30.1011 13.5392 30.1011 13.1832V12.2644C30.4665 12.2124 30.8368 12.178 31.2099 12.1588V13.1832C31.2099 13.5392 31.4984 13.8277 31.8545 13.8277C32.2105 13.8277 32.499 13.5392 32.499 13.1832V12.1588C32.8721 12.1781 33.2424 12.2125 33.6077 12.2644V13.1832C33.6077 13.5392 33.8962 13.8277 34.2523 13.8277C34.6083 13.8277 34.8968 13.5392 34.8968 13.1832V12.5199C36.1035 12.8283 37.2302 13.3185 38.2057 13.9721C39.1561 14.6088 39.9304 15.3777 40.4945 16.2281C40.2768 16.3239 40.0729 16.4499 39.89 16.6031C39.4452 16.2304 38.8773 16.016 38.2829 16.016C37.6885 16.016 37.1205 16.2303 36.6758 16.6031C36.231 16.2304 35.663 16.016 35.0687 16.016C34.4743 16.016 33.9063 16.2303 33.4616 16.6031C33.0168 16.2304 32.4488 16.016 31.8545 16.016C31.26 16.016 30.6921 16.2303 30.2473 16.6031C29.8025 16.2304 29.2346 16.016 28.6402 16.016C28.0458 16.016 27.4778 16.2303 27.0331 16.6031C26.5884 16.2304 26.0204 16.016 25.426 16.016C24.8316 16.016 24.2637 16.2304 23.8189 16.6031C23.6361 16.4499 23.4321 16.3239 23.2144 16.2281C23.7785 15.3776 24.5528 14.6087 25.5032 13.972V13.972ZM22.2117 17.3049C22.642 17.3049 23.0441 17.5376 23.2612 17.912C23.3765 18.1108 23.5889 18.2332 23.8188 18.2332C24.0486 18.2332 24.261 18.1109 24.3763 17.9121C24.5935 17.5376 24.9957 17.3049 25.4259 17.3049C25.8562 17.3049 26.2584 17.5376 26.4755 17.912C26.5908 18.1108 26.8031 18.2332 27.033 18.2332C27.2629 18.2332 27.4752 18.1109 27.5906 17.912C27.8077 17.5376 28.2098 17.3049 28.6401 17.3049C29.0703 17.3049 29.4725 17.5376 29.6898 17.9121C29.8051 18.1109 30.0175 18.2332 30.2472 18.2332C30.4771 18.2332 30.6895 18.1109 30.8048 17.912C31.0219 17.5376 31.4241 17.3049 31.8544 17.3049C32.2846 17.3049 32.6868 17.5376 32.904 17.9121C33.0192 18.1109 33.2317 18.2332 33.4615 18.2332C33.6914 18.2332 33.9037 18.1109 34.019 17.912C34.2361 17.5376 34.6383 17.3049 35.0686 17.3049C35.4988 17.3049 35.901 17.5376 36.1182 17.9121C36.2336 18.1109 36.4459 18.2332 36.6757 18.2332C36.9056 18.2332 37.118 18.1109 37.2333 17.912C37.4504 17.5376 37.8525 17.3049 38.2828 17.3049C38.713 17.3049 39.1152 17.5376 39.3325 17.9121C39.4477 18.1109 39.6602 18.2332 39.89 18.2332C40.1198 18.2332 40.3322 18.1109 40.4475 17.912C40.6646 17.5376 41.0668 17.3049 41.4971 17.3049C42.1663 17.3049 42.7108 17.8494 42.7108 18.5186C42.7108 19.1879 42.1663 19.7323 41.4971 19.7323C41.0668 19.7323 40.6646 19.4997 40.4475 19.1253C40.3322 18.9265 40.1198 18.804 39.89 18.804C39.6602 18.804 39.4477 18.9264 39.3325 19.1252C39.1152 19.4997 38.713 19.7323 38.2828 19.7323C37.8525 19.7323 37.4504 19.4997 37.2333 19.1253C37.118 18.9265 36.9056 18.804 36.6757 18.804C36.4459 18.804 36.2335 18.9264 36.1182 19.1252C35.901 19.4997 35.4988 19.7323 35.0686 19.7323C34.6383 19.7323 34.2361 19.4997 34.019 19.1253C33.9037 18.9265 33.6914 18.804 33.4615 18.804C33.2317 18.804 33.0192 18.9264 32.904 19.1252C32.6868 19.4997 32.2846 19.7323 31.8544 19.7323C31.4241 19.7323 31.0219 19.4997 30.8048 19.1253C30.6895 18.9265 30.4771 18.804 30.2472 18.804C30.0175 18.804 29.805 18.9264 29.6898 19.1252C29.4725 19.4997 29.0703 19.7323 28.6401 19.7323C28.2098 19.7323 27.8077 19.4997 27.5906 19.1253C27.4752 18.9265 27.2629 18.804 27.033 18.804C26.8031 18.804 26.5908 18.9264 26.4755 19.1253C26.3486 19.3441 26.1583 19.514 25.9363 19.6178C24.4222 19.0146 22.7569 18.679 21.0094 18.6757C21.0026 18.6242 20.998 18.572 20.998 18.5186C20.998 17.8494 21.5424 17.3049 22.2117 17.3049V17.3049ZM8.39163 23.4084H10.8635C10.6095 23.7247 10.3712 24.0525 10.1518 24.3922H8.39163V23.4084ZM5.7328 27.2044H3.5567C3.22145 27.2044 2.94216 27.4615 2.9144 27.7956C2.87968 28.2139 2.52355 28.5414 2.10375 28.5414C1.65455 28.5414 1.28915 28.176 1.28915 27.7268C1.28915 27.4833 1.397 27.2543 1.58512 27.0986C1.7331 26.9762 1.81878 26.7942 1.81878 26.602C1.81878 26.4099 1.7331 26.2278 1.58512 26.1054C1.397 25.9497 1.28915 25.7208 1.28915 25.4772C1.28915 25.028 1.65455 24.6626 2.10375 24.6626C2.52355 24.6626 2.87968 24.9902 2.9144 25.4084C2.94216 25.7425 3.22145 25.9996 3.5567 25.9996H5.73289V27.2044H5.7328ZM5.95332 24.7106H4.06063C3.82362 24.1118 3.31779 23.6483 2.70093 23.4625C2.67343 23.3803 2.65873 23.2933 2.65873 23.2044C2.65873 22.7552 3.02414 22.3898 3.47334 22.3898C3.89314 22.3898 4.24927 22.7175 4.28407 23.1356C4.31183 23.4698 4.59113 23.7268 4.92637 23.7268H7.10256V24.3922H6.64383C6.3678 24.3922 6.12055 24.5161 5.95332 24.7106V24.7106ZM10.433 33.736H7.5796C7.57848 33.7133 7.57728 33.6907 7.57728 33.6677C7.57728 32.8797 8.21829 32.2387 9.00625 32.2387C9.79421 32.2387 10.4352 32.8797 10.4352 33.6677C10.4353 33.6907 10.434 33.7133 10.433 33.736ZM30.3116 33.736H28.0679C28.0668 33.7133 28.0656 33.6907 28.0656 33.6677C28.0656 32.8797 28.7066 32.2387 29.4946 32.2387C29.8885 32.2387 30.2459 32.399 30.5046 32.6578C30.3791 32.9702 30.3093 33.3109 30.3093 33.6677C30.3092 33.6907 30.311 33.7132 30.3116 33.736ZM29.4946 30.9496C27.9959 30.9496 26.7765 32.1689 26.7765 33.6676C26.7765 33.6906 26.7782 33.7132 26.7788 33.7359H11.722C11.7226 33.7131 11.7244 33.6906 11.7244 33.6676C11.7244 32.3947 10.8446 31.3238 9.66135 31.0299C9.64915 30.8315 9.64227 30.6322 9.64227 30.432C9.64227 30.3662 9.64322 30.3008 9.64451 30.2353L16.2366 32.4738C16.6807 32.6246 17.1349 32.6989 17.5847 32.6989C18.4345 32.6989 19.2687 32.4336 19.9891 31.9175C21.0906 31.1282 21.7223 29.8983 21.7223 28.5432C21.7223 28.0587 21.6392 27.5833 21.4753 27.1304C21.3541 26.7956 20.9846 26.6225 20.6498 26.7437C20.3151 26.8649 20.142 27.2344 20.2632 27.5692C20.3761 27.881 20.4334 28.2087 20.4334 28.5431C20.4334 29.4774 19.9978 30.3253 19.2383 30.8695C18.479 31.4137 17.5359 31.5534 16.6512 31.253L7.02195 27.9832V25.6813H17.5715C17.8948 25.6813 18.2133 25.7354 18.5182 25.8423C18.8543 25.9602 19.222 25.7832 19.3397 25.4472C19.4575 25.1112 19.2805 24.7435 18.9446 24.6257C18.5023 24.4708 18.0403 24.3921 17.5715 24.3921H11.7273C13.7835 21.7153 17.1654 19.9643 20.9831 19.9643C27.2364 19.9643 32.3238 24.6601 32.3238 30.4319C32.3238 30.6382 32.3166 30.8434 32.3036 31.0476C31.9142 31.1556 31.5596 31.3482 31.2609 31.6043C30.7855 31.1967 30.1685 30.9496 29.4946 30.9496V30.9496ZM34.454 33.736H31.6006C31.5995 33.7133 31.5983 33.6907 31.5983 33.6677C31.5983 32.8797 32.2393 32.2387 33.0272 32.2387C33.8152 32.2387 34.4563 32.8797 34.4563 33.6677C34.4563 33.6907 34.4551 33.7133 34.454 33.736ZM34.8583 31.2495C34.7555 31.3024 34.6558 31.3603 34.5611 31.4253C34.2745 31.2286 33.9482 31.0867 33.5974 31.0114C33.6073 30.8191 33.6128 30.6259 33.6128 30.4321C33.6128 30.1945 33.6029 29.9591 33.5878 29.7249H34.8583V31.2495ZM37.5226 33.6676C37.5226 33.6906 37.5214 33.7133 37.5203 33.7359H35.743C35.7436 33.7131 35.7454 33.6906 35.7454 33.6676C35.7454 33.2109 35.6316 32.7803 35.4317 32.4021C35.6296 32.2978 35.8547 32.2387 36.0937 32.2387C36.8816 32.2387 37.5226 32.8797 37.5226 33.6676ZM37.5226 27.7482C37.5226 28.1274 37.2142 28.4358 36.835 28.4358H33.4281C33.33 27.9056 33.1959 27.3866 33.0241 26.8829H37.5226V27.7482ZM42.7109 25.5939H32.4932C32.2456 25.0856 31.9601 24.5967 31.6404 24.1298H34.375C34.731 24.1298 35.0195 23.8412 35.0195 23.4852C35.0195 23.1293 34.731 22.8407 34.375 22.8407H30.6187C30.0022 22.1638 29.3059 21.552 28.5421 21.0192C28.5747 21.0205 28.6074 21.0214 28.6401 21.0214C29.2345 21.0214 29.8024 20.807 30.2472 20.4343C30.692 20.807 31.26 21.0214 31.8544 21.0214C32.4487 21.0214 33.0167 20.807 33.4615 20.4343C33.9062 20.807 34.4743 21.0214 35.0686 21.0214C35.6629 21.0214 36.2309 20.807 36.6757 20.4343C37.1204 20.807 37.6885 21.0214 38.2828 21.0214C38.8772 21.0214 39.4451 20.807 39.89 20.4343C40.105 20.6145 40.3489 20.7572 40.6106 20.8571L39.6508 22.8407H37.3828C37.0268 22.8407 36.7383 23.1293 36.7383 23.4852C36.7383 23.8412 37.0268 24.1298 37.3828 24.1298H42.7109V25.5939Z" fill="black"/>
</g>
</g>
<defs>
<clipPath id="clip0_669_808">
<rect width="44" height="44" fill="white" transform="translate(0 0.0297852)"/>
</clipPath>
<clipPath id="clip1_669_808">
<rect width="44" height="44" fill="white" transform="translate(0 0.0297852)"/>
</clipPath>
</defs>
</svg>

<svg width="44" height="45" fill="none" xmlns="http://www.w3.org/2000/svg"><g clip-path="url(#clip0_669_808)"><g clip-path="url(#clip1_669_808)" fill="#000"><path d="M15.132 13.597h2.124a1 1 0 011 1v1.464a.645.645 0 101.29 0v-1.464a2.292 2.292 0 00-2.29-2.29h-2.124a.984.984 0 010-1.966h4.711a2.275 2.275 0 002.272-2.272 2.275 2.275 0 00-2.272-2.272h-3.77a.645.645 0 000 1.29h3.77a.984.984 0 010 1.965h-4.711a2.275 2.275 0 00-2.273 2.272 2.275 2.275 0 002.273 2.273zm-7.743 4.325h2.108c.544 0 .987.443.987.988v1.453a.644.644 0 101.29 0V18.91a2.279 2.279 0 00-2.277-2.277H7.39a.972.972 0 010-1.94h2.465a.645.645 0 000-1.29H7.389a2.262 2.262 0 00-2.26 2.26 2.262 2.262 0 002.26 2.26zm18.263 8.92a.645.645 0 100-1.289.645.645 0 000 1.29zm3.18 1.461a.645.645 0 100-1.289.645.645 0 000 1.29zm1.891 2.235a.645.645 0 100-1.29.645.645 0 000 1.29zm-2.664-5.243a.644.644 0 100-1.289.644.644 0 000 1.29zm-2.149 5.672a.645.645 0 100-1.289.645.645 0 000 1.29z"/><path d="M42.911 22.84h-1.828l.904-1.867A2.507 2.507 0 0044 18.52a2.506 2.506 0 00-2.102-2.47c-1.315-2.37-3.885-4.149-7.001-4.86v-.048a.645.645 0 00-1.264-.176 13.82 13.82 0 00-1.197-.1.644.644 0 00-1.163 0 14.2 14.2 0 00-1.197.1.644.644 0 00-1.264.176v.049c-3.116.71-5.686 2.49-7.001 4.859a2.506 2.506 0 00-2.093 2.685c-2.975.277-5.649 1.52-7.655 3.385h-4.05a.909.909 0 00-.69.319H5.43A2.118 2.118 0 003.473 21.1a2.106 2.106 0 00-2.082 2.397 2.107 2.107 0 00-1.066 3.104 2.106 2.106 0 001.778 3.229c.878 0 1.648-.554 1.958-1.337h1.704a.91.91 0 00.586.623l2.02.686a10.898 10.898 0 00-.002 1.223c-.316.076-.61.207-.873.383a2.7 2.7 0 00-1.51-.46 2.721 2.721 0 00-2.717 2.719l.002.068h-.754a1.08 1.08 0 00-.985.624 1.08 1.08 0 00.144 1.156l1.934 2.35c.207.252.514.397.84.397h27.26a.644.644 0 100-1.29H4.545l-1.604-1.948h39.544l-1.603 1.949h-6.164a.644.644 0 100 1.289h6.258c.327 0 .633-.145.84-.397l1.934-2.35a1.08 1.08 0 00.144-1.156 1.079 1.079 0 00-.984-.624h-.638a5.41 5.41 0 00.64-3.672.645.645 0 00-.52-.519 5.409 5.409 0 00-5.008 1.731c-.37-.2-.79-.316-1.237-.325v-1.226h.688a1.98 1.98 0 001.977-1.977v-.865h4.1c.6 0 1.088-.488 1.088-1.089V23.93c0-.6-.488-1.088-1.089-1.088zM6.291 33.737H4.56l-.002-.068a1.43 1.43 0 012.053-1.284 2.7 2.7 0 00-.323 1.284c0 .023.002.045.003.068zm32.225-1.785a4.116 4.116 0 013.184-1.194 4.118 4.118 0 01-1.005 2.979h-1.063l.881-.88a.644.644 0 10-.911-.912l-.914.913a2.71 2.71 0 00-.348-.717c.057-.065.115-.127.176-.189zm-13.013-17.98a10.719 10.719 0 013.309-1.452v.663a.644.644 0 101.29 0v-.919c.364-.052.735-.086 1.108-.105v1.024a.644.644 0 101.289 0V12.16c.373.02.743.053 1.109.105v.92a.644.644 0 101.289 0v-.664c1.206.308 2.333.799 3.309 1.452.95.637 1.724 1.406 2.288 2.256a2.526 2.526 0 00-.604.375 2.506 2.506 0 00-1.607-.587c-.595 0-1.163.214-1.607.587a2.506 2.506 0 00-1.607-.587c-.595 0-1.163.214-1.607.587a2.506 2.506 0 00-1.608-.587c-.594 0-1.162.214-1.607.587a2.506 2.506 0 00-1.607-.587c-.594 0-1.162.214-1.607.587a2.506 2.506 0 00-1.607-.587c-.594 0-1.162.214-1.607.587a2.524 2.524 0 00-.605-.375c.565-.85 1.339-1.62 2.29-2.256zm-3.291 3.333c.43 0 .832.233 1.05.607a.645.645 0 001.114 0 1.22 1.22 0 011.05-.607c.43 0 .832.233 1.05.607a.644.644 0 001.115 0 1.219 1.219 0 011.05-.607c.43 0 .832.233 1.049.607a.644.644 0 001.115 0 1.22 1.22 0 011.05-.607c.43 0 .832.233 1.049.607a.644.644 0 001.115 0 1.22 1.22 0 011.05-.607c.43 0 .832.233 1.05.607a.645.645 0 001.114 0 1.22 1.22 0 011.05-.607c.43 0 .832.233 1.05.607a.644.644 0 001.114 0c.218-.374.62-.607 1.05-.607a1.215 1.215 0 010 2.427c-.43 0-.832-.232-1.05-.607a.645.645 0 00-1.114 0c-.218.375-.62.607-1.05.607-.43 0-.833-.232-1.05-.607a.645.645 0 00-1.115 0c-.217.375-.62.607-1.05.607-.43 0-.832-.232-1.049-.607a.644.644 0 00-1.115 0c-.217.375-.62.607-1.05.607-.43 0-.832-.232-1.05-.607a.645.645 0 00-1.114 0c-.218.375-.62.607-1.05.607-.43 0-.832-.232-1.05-.607a.645.645 0 00-1.114 0 1.22 1.22 0 01-.54.493 13.364 13.364 0 00-4.927-.942 1.215 1.215 0 011.202-1.37v-.001zm-13.82 6.103h2.472a11.78 11.78 0 00-.712.984h-1.76v-.984zm-2.66 3.796H3.558a.645.645 0 00-.643.592.818.818 0 01-.81.745.815.815 0 01-.519-1.442.644.644 0 000-.994.813.813 0 111.33-.697.645.645 0 00.642.592h2.176v1.204zm.221-2.493H4.061a2.129 2.129 0 00-1.36-1.248.813.813 0 111.583-.327.645.645 0 00.642.59h2.177v.666h-.46a.909.909 0 00-.69.319zm4.48 9.025H7.58a1.43 1.43 0 011.427-1.497 1.43 1.43 0 011.428 1.429l-.002.068zm19.879 0h-2.244l-.002-.068a1.43 1.43 0 012.439-1.01 2.703 2.703 0 00-.196 1.01c0 .023.002.045.003.068zm-.817-2.786a2.721 2.721 0 00-2.719 2.718c0 .023.002.045.003.068H11.722l.002-.068c0-1.273-.88-2.344-2.063-2.638a9.739 9.739 0 01-.016-.795l6.592 2.239a4.113 4.113 0 003.753-.556 4.106 4.106 0 001.732-3.375c0-.484-.083-.96-.247-1.413a.645.645 0 10-1.212.44c.113.311.17.639.17.973a2.83 2.83 0 01-1.195 2.326 2.83 2.83 0 01-2.587.384l-9.629-3.27v-2.302h10.55c.323 0 .641.054.946.161a.644.644 0 10.427-1.216 4.144 4.144 0 00-1.373-.234h-5.845c2.056-2.677 5.438-4.428 9.256-4.428 6.253 0 11.34 4.696 11.34 10.468 0 .206-.006.411-.02.616a2.72 2.72 0 00-1.042.556 2.705 2.705 0 00-1.766-.654zm4.959 2.786h-2.853a1.43 1.43 0 011.427-1.497c.787 0 1.428.64 1.428 1.429 0 .023 0 .045-.002.068zm.404-2.486c-.102.052-.202.11-.297.175a2.704 2.704 0 00-.964-.414c.01-.192.016-.385.016-.579 0-.237-.01-.473-.025-.707h1.27v1.524zm2.665 2.418c0 .023-.002.045-.003.068h-1.777l.002-.068a2.7 2.7 0 00-.313-1.266 1.43 1.43 0 012.09 1.266zm0-5.92c0 .38-.309.688-.688.688h-3.407a10.96 10.96 0 00-.404-1.553h4.499v.865zm5.188-2.154H32.493a11.526 11.526 0 00-.853-1.464h2.735a.645.645 0 000-1.29h-3.756a12.417 12.417 0 00-2.077-1.82l.098.001c.595 0 1.162-.214 1.607-.587a2.506 2.506 0 001.607.587c.595 0 1.163-.214 1.608-.587a2.506 2.506 0 001.607.587c.594 0 1.162-.214 1.607-.587a2.506 2.506 0 001.607.587c.594 0 1.162-.214 1.607-.587.215.18.459.323.72.423l-.96 1.984h-2.267a.644.644 0 100 1.289h5.328v1.464z"/></g></g><defs><clipPath id="clip0_669_808"><path fill="#fff" transform="translate(0 .03)" d="M0 0h44v44H0z"/></clipPath><clipPath id="clip1_669_808"><path fill="#fff" transform="translate(0 .03)" d="M0 0h44v44H0z"/></clipPath></defs></svg>
